X:1
T:Title
%%score { ( 1 3 ) | ( 2 4 ) }
L:1/8
M:2/4
K:G
V:1 treble nm="Grand Piano"
V:3 treble 
V:2 bass 
V:4 bass 
V:1
 z4 | z[Q:1/4=92] D B,D | G4- | G z z2 | G4- | G z z2 | [FA]4- | [FA] z z2 | [FA]4- | [FA] z z2 | %10
 [DGB]4- | [DGB] z z2 | [^DFA]4- | [DFA][Fc] [FB][FA] | [B,EG]B AG | [Fd]2 .[A,DF]2 | [B,G]4- | %17
[M:1/8] [B,G] |] %18
V:2
 z4 | z4 | D2 [D,=F,G,]2- | [D,F,G,] z z2 | E4 | A,C CC | D,2 F,A, | CF DF | D,2 D[K:treble]^C | %9
 CG DG | G,2 D,B,, | G,,[K:treble]d cB | B,,2 ^D,F, | A,^D DD | z B, B,B, | z2 D,2 | G,2 D,B,, | %17
[M:1/8] G,, |] %18
V:3
 x4 | x4 | z G,/F,/ B,2- | B,D B,D | z2 CB, | CF DF | x4 | x4 | x4 | x4 | x4 | x4 | x4 | x4 | x4 | %15
 x4 | x4 |[M:1/8] x |] %18
V:4
 x4 | x4 | x4 | x4 | x4 | x4 | x4 | x4 | x3[K:treble] x | x4 | x4 | x[K:treble] x3 | x4 | x4 | %14
 E,4 | D,,A,, z C | x4 |[M:1/8] x |] %18

